src/OnboardingSPA/static/icons/food-white.svg

<svg fill="none" height="22" viewBox="0 0 14 22" width="14" xmlns="http://www.w3.org/2000/svg"><g fill="#fff"><path d="m11.8529 6.26471c-.4551 0-.8235-.25831-.8235-.57739v-4.60994c0-.319077.3684-.57738.8235-.57738s.8236.258303.8236.57738v4.60994c0 .31908-.3685.57739-.8236.57739z"/><path d="m9.70588 6.26471c-.4551 0-.82353-.25831-.82353-.57739v-4.60994c0-.319077.36843-.57738.82353-.57738.45512 0 .82352.258303.82352.57738v4.60994c0 .31908-.3684.57739-.82352.57739z"/><g clip-rule="evenodd" fill-rule="evenodd"><path d="m10.7048 21.9118c-1.03209 0-1.87175-.8685-1.87175-1.9368 0-.4033.32001-3.8929.95282-10.37638-1.38526-.39287-2.3741-1.69523-2.3741-3.23167v-5.86695h6.58823v5.86695c0 1.53644-.9888 2.8388-2.3748 3.23167.6321 6.48418.9528 9.97378.9528 10.37638 0 1.0683-.8397 1.9368-1.8725 1.9368zm0-10.4465c-.6962 7.185-.77695 8.3546-.77695 8.5097 0 .4428.34885.8036.77695.8036s.777-.36.777-.8036c0-.1551-.0808-1.324-.777-8.5097zm-2.19824-5.09835v-4.73382h4.39724v4.73382c0 1.14506-.8289 2.09406-1.9287 2.20738l-.2696.02758-.2703-.02758c-1.09979-.11332-1.92864-1.06232-1.92864-2.20738z"/><path d="m3.29457 21.9118c-1.03169 0-1.87173-.8685-1.87173-1.9368 0-.4041.31988-3.8937.95243-10.37638-1.38542-.39287-2.37387513-1.69523-2.37387513-3.23167-.00360224-.12673-.07132437-3.47171 1.40703513-5.04245.51512-.54718 1.14984-.8245 1.88614-.8245.73629 0 1.37101.27732 1.88541.8245 1.47798 1.57033 1.40995 4.91398 1.40704 5.05725v.00011c0 1.52302-.98846 2.82464-2.37316 3.21676.63183 6.48418.95243 9.97378.95243 10.37638 0 1.0683-.83932 1.9368-1.87172 1.9368zm0-10.4465c-.69596 7.1842-.77665 8.3546-.77665 8.5097 0 .4428.3487.8036.77665.8036.42794 0 .77664-.36.77664-.8036 0-.1551-.08069-1.324-.77664-8.5097zm-1.10085-9.35058c.30547-.32354.66569-.48084 1.10085-.48084.43515 0 .79465.1573 1.10012.48084.95964 1.01833 1.11742 3.40462 1.09724 4.25298 0 1.14506-.82851 2.09406-1.92792 2.20737l-.26944.02759-.26945-.02759c-1.09941-.11331-1.92864-1.06306-1.92864-2.22228-.02018-.83345.1376-3.21974 1.09724-4.23807z"/></g></g></svg>

<svg width="14" height="22" viewBox="0 0 14 22" fill="none" xmlns="http://www.w3.org/2000/svg">
<g id="food">
<path id="Path" d="M11.8529 6.26471C11.3978 6.26471 11.0294 6.0064 11.0294 5.68732V1.07738C11.0294 0.758303 11.3978 0.5 11.8529 0.5C12.308 0.5 12.6765 0.758303 12.6765 1.07738V5.68732C12.6765 6.0064 12.308 6.26471 11.8529 6.26471Z" fill="white"/>
<path id="Path_2" d="M9.70588 6.26471C9.25078 6.26471 8.88235 6.0064 8.88235 5.68732V1.07738C8.88235 0.758303 9.25078 0.5 9.70588 0.5C10.161 0.5 10.5294 0.758303 10.5294 1.07738V5.68732C10.5294 6.0064 10.161 6.26471 9.70588 6.26471Z" fill="white"/>
<path id="Shape" fill-rule="evenodd" clip-rule="evenodd" d="M10.7048 21.9118C9.67271 21.9118 8.83305 21.0433 8.83305 19.975C8.83305 19.5717 9.15306 16.0821 9.78587 9.59862C8.40061 9.20575 7.41177 7.90339 7.41177 6.36695V0.5H14V6.36695C14 7.90339 13.0112 9.20575 11.6252 9.59862C12.2573 16.0828 12.578 19.5724 12.578 19.975C12.578 21.0433 11.7383 21.9118 10.7055 21.9118H10.7048ZM10.7048 11.4653C10.0086 18.6503 9.92785 19.8199 9.92785 19.975C9.92785 20.4178 10.2767 20.7786 10.7048 20.7786C11.1329 20.7786 11.4818 20.4186 11.4818 19.975C11.4818 19.8199 11.401 18.651 10.7048 11.4653ZM8.50656 6.36695V1.63313H12.9038V6.36695C12.9038 7.51201 12.0749 8.46101 10.9751 8.57433L10.7055 8.60191L10.4352 8.57433C9.33541 8.46101 8.50656 7.51201 8.50656 6.36695Z" fill="white"/>
<path id="Shape_2" fill-rule="evenodd" clip-rule="evenodd" d="M3.29457 21.9118C2.26288 21.9118 1.42284 21.0433 1.42284 19.975C1.42284 19.5709 1.74272 16.0813 2.37527 9.59862C0.98985 9.20575 0.00139487 7.90339 0.00139487 6.36695C-0.00220737 6.24022 -0.0699295 2.89524 1.40843 1.3245C1.92355 0.77732 2.55827 0.5 3.29457 0.5C4.03086 0.5 4.66558 0.77732 5.17998 1.3245C6.65796 2.89483 6.58993 6.23848 6.58702 6.38175V6.38175L6.58702 6.38186C6.58702 7.90488 5.59856 9.2065 4.21386 9.59862C4.84569 16.0828 5.16629 19.5724 5.16629 19.975C5.16629 21.0433 4.32697 21.9118 3.29457 21.9118ZM3.29457 11.4653C2.59861 18.6495 2.51792 19.8199 2.51792 19.975C2.51792 20.4178 2.86662 20.7786 3.29457 20.7786C3.72251 20.7786 4.07121 20.4186 4.07121 19.975C4.07121 19.8199 3.99052 18.651 3.29457 11.4653ZM2.19372 2.11472C2.49919 1.79118 2.85941 1.63388 3.29457 1.63388C3.72972 1.63388 4.08922 1.79118 4.39469 2.11472C5.35433 3.13305 5.51211 5.51934 5.49193 6.3677C5.49193 7.51276 4.66342 8.46176 3.56401 8.57507L3.29457 8.60266L3.02512 8.57507C1.92571 8.46176 1.09648 7.51201 1.09648 6.35279C1.0763 5.51934 1.23408 3.13305 2.19372 2.11472Z" fill="white"/>
</g>
</svg>
